!!!SOCIAL_FUNCTION:	songs of the buffalo hunt
!!!PDT:	1918

Specific Region: Dakotas, Minnesota, Montana, Nebraska
!!!REG: Dakotas and Montana
!!!LING_GROUP: Siouan
!!!LANG: Tone
!!!OTL@ENG: Song To Secure Buffalo in Time of Famine
!!!ONM: No. 183
**kern
*Imale
*clefF4
*k[f#]
*M2/4
*MM76
4e
8.e
16e
=2
8e
8e
16e
16c
8c
=3
4c
8.c
16c
=4
8d
8c
16A
8G
16E
=5
4A
4A
=6||
*M3/4
8B
8A
8G
8G
16E
8E
16E
=7
[2E
8.E]
16E
=8||
*M2/4
4..E
16e
=9
4e
8e
16e
16e
=10
4e
(16e
16d
8d)
=11
8.d
16d
4c
=12
8.d
16d
8d
8d
=13||
*M3/4
(12d
12A)
12A
(12A
12G)
12G
8.G
16E
=14||
*M2/4
4A
4A
=15||
*M3/4
8B
8A
8G
8G
16E
8E
16E
=16
[2E
8.E]
16E
=17
4E
2r
==
*-
!!!CNT: Native American -- Sioux
!!!MRD: 1911/07//-1914///
!!!OCL: Frances Densmore
!!!YOR1: Teton Sioux Music, Bulletin 61,
!!!YOR2: Bureau of American Ethnology, Smithsonian Institution
!!!PPR: Government Printing Office
!!!PPP: Washington, D.C.
!!!PDT: 1918///
!!!ENC: Craig Stuart Sapp
!!!END: 2002/03/25/
!!!EEV: 2002/03/31/
!!!AGN: Buffalo Hunt Song
!!!MPN@@SIO: Shiya'ka
!!!MPN@ENG: Teal Duck
!!!TXO: Teton Sioux
!!!MLC: Standing Rock Reservation, South Dakota, United States of America
!!!ARL: 45.9/-100.7#
!!!catalog: Catalogue No. 469
!!!PPG: 445
!!!EFL: 188/245
!!!VTS: 1459712775
